assets/2023/icons/php_dark.svg

<!-- Copyright 2000-2022 JetBrains s.r.o. and contributors. Use of this source code is governed by the Apache 2.0 license. -->
<svg width="16" height="16" viewBox="0 0 16 16" fill="none" xmlns="http://www.w3.org/2000/svg">
<path d="M1.26612 5.6911H3.63899C4.33545 5.69695 4.84013 5.89775 5.15303 6.29317C5.46593 6.6886 5.56917 7.22869 5.46292 7.91346C5.42166 8.22635 5.33011 8.53324 5.18845 8.83427C5.05263 9.13531 4.86385 9.40677 4.62179 9.64884C4.3266 9.95572 4.01086 10.1505 3.67441 10.2332C3.33796 10.3159 2.98965 10.3572 2.62964 10.3572H1.56716L1.23071 12.0394H0L1.26612 5.6911ZM2.30204 6.70046L1.7708 9.35666C1.80622 9.3625 1.84163 9.36551 1.87705 9.36551C1.91831 9.36551 1.95974 9.36551 2.001 9.36551C2.56766 9.37136 3.03993 9.31539 3.41764 9.19729C3.79536 9.07333 4.04929 8.64249 4.17909 7.9046C4.28534 7.28482 4.17909 6.92765 3.86034 6.83327C3.54745 6.73888 3.15503 6.69461 2.68276 6.70046C2.61193 6.7063 2.54411 6.70931 2.47912 6.70931C2.42015 6.70931 2.35817 6.70931 2.29319 6.70931L2.30204 6.70046Z" fill="#548AF7"/>
<path d="M6.86482 4H8.08667L7.74137 5.69111H8.83926C9.44133 5.70298 9.88988 5.82693 10.1851 6.06298C10.4861 6.29903 10.5746 6.74775 10.4507 7.40879L9.85747 10.3572H8.61791L9.18457 7.5416C9.24354 7.24641 9.22583 7.03692 9.13144 6.91297C9.03706 6.78901 8.83342 6.72703 8.52052 6.72703L7.53772 6.71818L6.8117 10.3572H5.58984L6.86482 4Z" fill="#548AF7"/>
<path d="M11.7622 5.6911H14.1351C14.8315 5.69695 15.3362 5.89775 15.6491 6.29317C15.962 6.6886 16.0653 7.22869 15.959 7.91346C15.9177 8.22635 15.8262 8.53324 15.6845 8.83427C15.5487 9.13531 15.3599 9.40677 15.1179 9.64884C14.8227 9.95572 14.507 10.1505 14.1705 10.2332C13.8341 10.3159 13.4857 10.3572 13.1257 10.3572H12.0633L11.7268 12.0394H10.4961L11.7622 5.6911ZM12.7981 6.70046L12.2669 9.35666C12.3023 9.3625 12.3377 9.36551 12.3731 9.36551C12.4144 9.36551 12.4558 9.36551 12.4971 9.36551C13.0638 9.37136 13.536 9.31539 13.9137 9.19729C14.2915 9.07333 14.5454 8.64249 14.6752 7.9046C14.7814 7.28482 14.6752 6.92765 14.3564 6.83327C14.0435 6.73888 13.6511 6.69461 13.1789 6.70046C13.108 6.7063 13.0402 6.70931 12.9752 6.70931C12.9162 6.70931 12.8543 6.70931 12.7893 6.70931L12.7981 6.70046Z" fill="#548AF7"/>
</svg>

<svg xmlns="http://www.w3.org/2000/svg" width="16" height="16" fill="none" viewBox="0 0 16 16"><path fill="#548AF7" d="M1.266 5.691H3.64q1.044.01 1.514.602.47.594.31 1.62-.062.47-.275.921a2.7 2.7 0 0 1-.566.815q-.442.46-.948.584a4.4 4.4 0 0 1-1.044.124H1.567l-.336 1.682H0zm1.036 1.01-.531 2.656q.052.009.106.009h.124q.85.008 1.417-.169.566-.186.761-1.292.16-.93-.319-1.072-.47-.14-1.177-.133-.107.01-.204.01h-.186zM6.865 4h1.222L7.74 5.691h1.1q.902.018 1.346.372.452.354.266 1.346l-.594 2.948h-1.24l.568-2.815q.088-.443-.054-.629t-.61-.186l-.983-.009-.726 3.64H5.59zm4.897 1.691h2.373q1.045.01 1.514.602.47.594.31 1.62-.062.47-.274.921a2.7 2.7 0 0 1-.567.815q-.443.46-.947.584a4.4 4.4 0 0 1-1.045.124h-1.063l-.336 1.682h-1.23zm1.036 1.01-.531 2.656q.052.009.106.009h.124q.85.008 1.417-.169.566-.186.761-1.292.16-.93-.319-1.072-.469-.14-1.177-.133-.106.01-.204.01h-.186z"/></svg>
